_includes/icons/color-full-battery.svg

<svg fill="#666" height="50" viewBox="0 0 48 48" width="50" xmlns="http://www.w3.org/2000/svg"><g fill="#8bc34a"><path d="m34 44h-20c-1.101562 0-2-.898437-2-2v-34c0-1.101562.898438-2 2-2h20c1.101563 0 2 .898438 2 2v34c0 1.101563-.898437 2-2 2z"/><path d="m28 13h-8c-.601562 0-1-.398437-1-1v-7c0-.601562.398438-1 1-1h8c.601563 0 1 .398438 1 1v7c0 .601563-.398437 1-1 1z"/></g></svg>

<svg xmlns="http://www.w3.org/2000/svg" viewBox="0 0 48 48" width="50" height="50" fill="#666"><g fill="#8bc34a"><path d="M 34 44 L 14 44 C 12.898438 44 12 43.101563 12 42 L 12 8 C 12 6.898438 12.898438 6 14 6 L 34 6 C 35.101563 6 36 6.898438 36 8 L 36 42 C 36 43.101563 35.101563 44 34 44 Z"/><path d="M 28 13 L 20 13 C 19.398438 13 19 12.601563 19 12 L 19 5 C 19 4.398438 19.398438 4 20 4 L 28 4 C 28.601563 4 29 4.398438 29 5 L 29 12 C 29 12.601563 28.601563 13 28 13 Z"/></g></svg>
